site/static/images/arrow-down.svg

<svg fill="none" height="11" viewBox="0 0 11 11" width="11" xmlns="http://www.w3.org/2000/svg"><path clip-rule="evenodd" d="m10.0303 5.21967c.2929.29289.2929.76777 0 1.06066l-4.24997 4.24997c-.29289.2929-.76777.2929-1.06066 0l-4.250002-4.24997c-.292891-.29289-.292891-.76777 0-1.06066.29289-.29289.767772-.29289 1.060662 0l2.96967 2.96963v-7.4393c0-.41421.33579-.75.75-.75s.75.33579.75.75v7.4393l2.9697-2.96963c.2929-.29289.7677-.29289 1.0606 0z" fill="#0075ff" fill-rule="evenodd"/></svg>

<svg width="11" height="11" viewBox="0 0 11 11" fill="none" xmlns="http://www.w3.org/2000/svg">
<path fill-rule="evenodd" clip-rule="evenodd" d="M10.0303 5.21967C10.3232 5.51256 10.3232 5.98744 10.0303 6.28033L5.78033 10.5303C5.48744 10.8232 5.01256 10.8232 4.71967 10.5303L0.469668 6.28033C0.176777 5.98744 0.176777 5.51256 0.469668 5.21967C0.762558 4.92678 1.23744 4.92678 1.53033 5.21967L4.5 8.1893V0.75C4.5 0.33579 4.83579 0 5.25 0C5.66421 0 6 0.33579 6 0.75V8.1893L8.9697 5.21967C9.2626 4.92678 9.7374 4.92678 10.0303 5.21967Z" fill="#0075ff"/>
</svg>
